X:6
T:Sparf Fars Polska (Boda)
R:polska O
C:Anders Sparf
Z: 1999 Brian Wilson  http://ma.ultranet.com/~baab
Z:from Peter Barnes "A little Couple-Dancemusik", p. 191
M:3/4
L:1/8
K:A
P:A
||: "A"A,>A, C>E A>c | "D"d>f "A"e2 c2 | "E"cB/c/ d>E G>B | "A"BA/B/ cB AE
  | "A"A,>A, C>E A>c | "D"d>f "A"e2 c2 | "E"cB/c/ d>E G>B | "A"BA/G/ A4 :||
P:B
||: "D"a>g a>b a>=3Dg | f2 d3 f | "A"a2 e>f e>d | c2 A4
  | "E"f>e d>c B>A | G2 E4 | "E"E>E F>F G>B | "A"A>B c/B/c/d/ e>e
  | "D"a>g a>b a>=3Dg | f2 d3 f | "A"a2 e>f e>d | c2 A4
  | "E"f>e d>c B>A | G2 E4 | "E"E>E F>F G>B | "A"A2 A4 :||



